X:130
T: WAS WIRST DU MIR MITBRINGEN
N: E0068
O: Europa, Mitteleuropa, Deutschland, Schlesien, Breslau; Hainau
R: erzaehlendes Volks - Lied, Sage, Liebe
M: 2/4
L: 1/16
K: F
C2 | F2F2A2A2 | c4A2
A2 | G2d2c2B2 | A4z2
A2 | c2B2G2B2 | B4A2
A2 | c2B2G2B2 | B4A2
C2 | F2F2A2c2 | f6
d2 | c2A2cBG2 | F4z2

@@@ Tune index: 3780
